public/icons/team-linkedin.svg

<svg width="36" height="35" viewBox="0 0 36 35" fill="none" xmlns="http://www.w3.org/2000/svg">
<ellipse opacity="0.1" cx="17.9999" cy="17.5" rx="17.4941" ry="17.5" fill="#093160"/>
<path d="M24.0714 9H11.8851C10.834 9 9.98096 9.85333 9.98096 10.9048V23.0952C9.98096 24.1467 10.834 25 11.8851 25H24.0714C25.1225 25 25.9756 24.1467 25.9756 23.0952V10.9048C25.9756 9.85333 25.1225 9 24.0714 9ZM14.9317 15.0952V22.3333H12.6467V15.0952H14.9317ZM12.6467 12.9886C12.6467 12.4552 13.1037 12.0476 13.7892 12.0476C14.4747 12.0476 14.905 12.4552 14.9317 12.9886C14.9317 13.5219 14.5051 13.9524 13.7892 13.9524C13.1037 13.9524 12.6467 13.5219 12.6467 12.9886ZM23.3098 22.3333H21.0248C21.0248 22.3333 21.0248 18.8057 21.0248 18.5238C21.0248 17.7619 20.644 17 19.692 16.9848H19.6615C18.7399 16.9848 18.3591 17.7695 18.3591 18.5238C18.3591 18.8705 18.3591 22.3333 18.3591 22.3333H16.0741V15.0952H18.3591V16.0705C18.3591 16.0705 19.0941 15.0952 20.5717 15.0952C22.0835 15.0952 23.3098 16.1352 23.3098 18.2419V22.3333Z" fill="#093160"/>
</svg>

<svg xmlns="http://www.w3.org/2000/svg" width="36" height="35" fill="none"><ellipse cx="18" cy="17.5" fill="#093160" opacity=".1" rx="17.494" ry="17.5"/><path fill="#093160" d="M24.071 9H11.885a1.905 1.905 0 0 0-1.904 1.905v12.19c0 1.052.853 1.905 1.904 1.905h12.186a1.905 1.905 0 0 0 1.905-1.905v-12.19A1.905 1.905 0 0 0 24.07 9m-9.14 6.095v7.238h-2.284v-7.238zm-2.284-2.106c0-.534.457-.941 1.142-.941.686 0 1.116.407 1.143.94 0 .534-.427.964-1.143.964-.685 0-1.142-.43-1.142-.963m10.663 9.344h-2.285v-3.81c0-.761-.381-1.523-1.333-1.538h-.03c-.922 0-1.303.785-1.303 1.539v3.81h-2.285v-7.239h2.285v.975s.735-.975 2.213-.975c1.512 0 2.738 1.04 2.738 3.147z"/></svg>
